icon-themes/sifr_svg/cmd/sc_connectorline.svg

<svg viewBox="0 0 16 16" xmlns="http://www.w3.org/2000/svg"><g fill="#555753"><path d="m3 3c-.5522847 0-1 .4477153-1 1s.4477153 1 1 1 1-.4477153 1-1-.4477153-1-1-1zm10 8c-.552285 0-1 .447715-1 1s.447715 1 1 1 1-.447715 1-1-.447715-1-1-1z" opacity=".35"/><path d="m3 1c-1.6568542 0-3 1.3431458-3 3s1.3431458 3 3 3c.5001995-.00049.9923378-.1260423 1.4316406-.3652344l5.7988284 4.2187504c-.151285.363343-.229595.752905-.230469 1.146484 0 1.656854 1.343146 3 3 3s3-1.343146 3-3-1.343146-3-3-3c-.5002.0004898-.992338.126042-1.431641.365234l-5.7988278-4.2187496c.1512848-.3633435.2295953-.7529049.2304688-1.1464844 0-1.6568542-1.3431458-3-3-3zm0 2c.5522847 0 1 .4477153 1 1s-.4477153 1-1 1-1-.4477153-1-1 .4477153-1 1-1zm10 8c.552285 0 1 .447715 1 1s-.447715 1-1 1-1-.447715-1-1 .447715-1 1-1z"/></g></svg>

<svg xmlns="http://www.w3.org/2000/svg" viewBox="0 0 16 16">
  <path
     style="opacity:0.35;fill:#555753"
     d="M 3,3 C 2.4477153,3 2,3.4477153 2,4 2,4.5522847 2.4477153,5 3,5 3.5522847,5 4,4.5522847 4,4 4,3.4477153 3.5522847,3 3,3 Z m 10,8 c -0.552285,0 -1,0.447715 -1,1 0,0.552285 0.447715,1 1,1 0.552285,0 1,-0.447715 1,-1 0,-0.552285 -0.447715,-1 -1,-1 z"
     />
  <path
     style="fill:#555753"
     d="M 3,1 C 1.3431458,1 0,2.3431458 0,4 0,5.6568542 1.3431458,7 3,7 3.5001995,6.99951 3.9923378,6.8739577 4.4316406,6.6347656 L 10.230469,10.853516 C 10.079184,11.216859 10.000874,11.606421 10,12 c 0,1.656854 1.343146,3 3,3 1.656854,0 3,-1.343146 3,-3 0,-1.656854 -1.343146,-3 -3,-3 -0.5002,4.898e-4 -0.992338,0.126042 -1.431641,0.365234 L 5.7695312,5.1464844 C 5.920816,4.7831409 5.9991265,4.3935795 6,4 6,2.3431458 4.6568542,1 3,1 Z M 3,3 C 3.5522847,3 4,3.4477153 4,4 4,4.5522847 3.5522847,5 3,5 2.4477153,5 2,4.5522847 2,4 2,3.4477153 2.4477153,3 3,3 Z m 10,8 c 0.552285,0 1,0.447715 1,1 0,0.552285 -0.447715,1 -1,1 -0.552285,0 -1,-0.447715 -1,-1 0,-0.552285 0.447715,-1 1,-1 z"
     />
</svg>
